assets/wallet_scan.svg

<svg fill="none" height="19" viewBox="0 0 19 19" width="19" xmlns="http://www.w3.org/2000/svg"><path d="m1 6.4v-3c0-1.32548 1.07452-2.4 2.4-2.4h3m6 0h3c1.3255 0 2.4 1.07452 2.4 2.4v3m-16.8 6v3c0 1.3255 1.07452 2.4 2.4 2.4h3m11.4-5.4v3c0 1.3255-1.0745 2.4-2.4 2.4h-3m-9.6-8.4h13.2" stroke="#fff" stroke-width="2"/></svg>

<svg width="19" height="19" viewBox="0 0 19 19" fill="none" xmlns="http://www.w3.org/2000/svg">
<path d="M1 6.4V3.4C1 2.07452 2.07452 1 3.4 1H6.4M12.4 1H15.4C16.7255 1 17.8 2.07452 17.8 3.4V6.4M1 12.4V15.4C1 16.7255 2.07452 17.8 3.4 17.8H6.4M17.8 12.4V15.4C17.8 16.7255 16.7255 17.8 15.4 17.8H12.4M2.8 9.4H16" stroke="white" stroke-width="2"/>
</svg>
